X: 2
T: Sleep Soond I'da Mornin'
R: reel
M: 4/4
L: 1/8
K: Ador
Aaag a2ef|gedB GA (3BAG|Aaag a2ef|1 gedB A3G:|2 gedB A3B||
cAeA cAeA|BcdB G2 AB|cAeA cAeA|BAGB A2 AB|
cAeA cAeA|BcdB G2 AB|ABcd efga|gedB A3G||